img/money-icon.svg

<svg width="22" height="21" viewBox="0 0 22 21" fill="none" xmlns="http://www.w3.org/2000/svg">
<path d="M14.5067 11.1393V11.2191L14.5845 11.2368C15.3063 11.4013 15.8348 12.0048 15.8348 12.7128C15.8348 12.8868 15.6937 13.0279 15.5197 13.0279C15.3458 13.0279 15.2047 12.8868 15.2047 12.7128C15.2047 12.2088 14.7363 11.8226 14.1917 11.8226C13.647 11.8226 13.1786 12.2088 13.1786 12.7128C13.1786 13.2169 13.647 13.6031 14.1917 13.6031C15.1046 13.6031 15.8348 14.2919 15.8348 15.1234C15.8348 15.8315 15.3063 16.4349 14.5845 16.5994L14.5067 16.6172V16.6969V16.8762C14.5067 17.0502 14.3656 17.1912 14.1917 17.1912C14.0177 17.1912 13.8767 17.0502 13.8767 16.8762V16.6969V16.6172L13.7989 16.5994C13.0771 16.4349 12.5486 15.8315 12.5486 15.1234C12.5486 14.9494 12.6897 14.8084 12.8636 14.8084C13.0376 14.8084 13.1786 14.9494 13.1786 15.1234C13.1786 15.6275 13.647 16.0137 14.1917 16.0137C14.7363 16.0137 15.2047 15.6275 15.2047 15.1234C15.2047 14.6193 14.7363 14.2331 14.1917 14.2331C13.2788 14.2331 12.5486 13.5443 12.5486 12.7128C12.5486 12.0048 13.0771 11.4013 13.7989 11.2368L13.8767 11.2191V11.1393V10.9234C13.8767 10.7495 14.0177 10.6084 14.1917 10.6084C14.3656 10.6084 14.5067 10.7495 14.5067 10.9234V11.1393Z" fill="white" stroke="white" stroke-width="0.2"/>
<path d="M16.4852 9.16967L16.4852 9.16968C17.3714 9.59566 18.1211 10.2591 18.6532 11.0883C19.1999 11.9402 19.4889 12.9278 19.4889 13.9446C19.4889 14.8104 19.2752 15.6695 18.8712 16.4287L18.9595 16.4756L18.8712 16.4287C18.8147 16.535 18.7058 16.5958 18.5928 16.5958C18.543 16.5958 18.4925 16.584 18.4452 16.5588L18.4452 16.5588C18.2916 16.4771 18.2333 16.2863 18.3151 16.1327L18.3151 16.1327C18.6709 15.4639 18.8589 14.7074 18.8589 13.9446C18.8589 12.1615 17.8202 10.5105 16.2122 9.73749C16.0554 9.66211 15.9894 9.47392 16.0648 9.3171L16.0648 9.31709C16.1402 9.16029 16.3284 9.09425 16.4852 9.16967Z" fill="white" stroke="white" stroke-width="0.2"/>
<path d="M14.8163 9.27948H14.8161C14.6422 9.27948 14.5011 9.13844 14.5011 8.96446C14.5011 8.79048 14.6422 8.64944 14.8161 8.64944L14.8438 8.64948C15.0176 8.65038 15.1579 8.79203 15.1571 8.96598C15.1563 9.13946 15.0154 9.27952 14.8422 9.27952H14.8422H14.8422H14.8422H14.8421H14.8421H14.8421H14.8421H14.8421H14.8421H14.8421H14.8421H14.8421H14.8421H14.8421H14.8421H14.8421H14.8421H14.8421H14.8421H14.8421H14.8421H14.8421H14.8421H14.8421H14.8421H14.8421H14.8421H14.842H14.842H14.842H14.842H14.842H14.842H14.842H14.842H14.842H14.842H14.842H14.842H14.842H14.842H14.842H14.842H14.842H14.842H14.842H14.842H14.842H14.842H14.842H14.842H14.842H14.8419H14.8419H14.8419H14.8419H14.8419H14.8419H14.8419H14.8419H14.8419H14.8419H14.8419H14.8419H14.8419H14.8419H14.8419H14.8419H14.8419H14.8419H14.8419H14.8419H14.8419H14.8419H14.8419H14.8419H14.8419H14.8418H14.8418H14.8418H14.8418H14.8418H14.8418H14.8418H14.8418H14.8418H14.8418H14.8418H14.8418H14.8418H14.8418H14.8418H14.8418H14.8418H14.8418H14.8418H14.8418H14.8418H14.8418H14.8418H14.8418H14.8418H14.8417H14.8417H14.8417H14.8417H14.8417H14.8417H14.8417H14.8417H14.8417H14.8417H14.8417H14.8417H14.8417H14.8417H14.8417H14.8417H14.8417H14.8417H14.8417H14.8417H14.8417H14.8417H14.8417H14.8417H14.8417H14.8416H14.8416H14.8416H14.8416H14.8416H14.8416H14.8416H14.8416H14.8416H14.8416H14.8416H14.8416H14.8416H14.8416H14.8416H14.8416H14.8416H14.8416H14.8416H14.8416H14.8416H14.8416H14.8416H14.8416H14.8416H14.8416H14.8415H14.8415H14.8415H14.8415H14.8415H14.8415H14.8415H14.8415H14.8415H14.8415H14.8415H14.8415H14.8415H14.8415H14.8415H14.8415H14.8415H14.8415H14.8415H14.8415H14.8415H14.8415H14.8415H14.8415H14.8415H14.8414H14.8414H14.8414H14.8414H14.8414H14.8414H14.8414H14.8414H14.8414H14.8414H14.8414H14.8414H14.8414H14.8414H14.8414H14.8414H14.8414H14.8414H14.8414H14.8414H14.8414H14.8414H14.8414H14.8414H14.8414H14.8414H14.8413H14.8413H14.8413H14.8413H14.8413H14.8413H14.8413H14.8413H14.8413H14.8413H14.8413H14.8413H14.8413H14.8413H14.8413H14.8413H14.8413H14.8413H14.8413H14.8413H14.8413H14.8413H14.8413H14.8413H14.8413H14.8413H14.8412H14.8412H14.8412H14.8412H14.8412H14.8412H14.8412H14.8412H14.8412H14.8412H14.8412H14.8412H14.8412H14.8412H14.8412H14.8412H14.8412H14.8412H14.8412H14.8412H14.8412H14.8412H14.8412H14.8412H14.8412H14.8412H14.8411H14.8411H14.8411H14.8411H14.8411H14.8411H14.8411H14.8411H14.8411H14.8411H14.8411H14.8411H14.8411H14.8411H14.8411H14.8411H14.8411H14.8411H14.8411H14.8411H14.8411H14.8411H14.8411H14.8411H14.8411H14.8411H14.841H14.841H14.841H14.841H14.841H14.841H14.841H14.841H14.841H14.841H14.841H14.841H14.841H14.841H14.841H14.841H14.841H14.841H14.841H14.841H14.841H14.841H14.841H14.841H14.841H14.841H14.841H14.8409H14.8409H14.8409H14.8409H14.8409H14.8409H14.8409H14.8409H14.8409H14.8409H14.8409H14.8409H14.8409H14.8409H14.8409H14.8409H14.8409H14.8409H14.8409H14.8409H14.8409H14.8409H14.8409H14.8409H14.8409H14.8409H14.8408H14.8408H14.8408H14.8408H14.8408H14.8408H14.8408H14.8408H14.8408H14.8408H14.8408H14.8408H14.8408H14.8408H14.8408H14.8408H14.8408H14.8408H14.8408H14.8408H14.8408H14.8408H14.8408H14.8408H14.8408H14.8408H14.8407H14.8407H14.8407H14.8407H14.8407H14.8407H14.8407H14.8407H14.8407H14.8407H14.8407H14.8407H14.8407H14.8407H14.8407H14.8407H14.8407H14.8407H14.8407H14.8407H14.8407H14.8407H14.8407H14.8407H14.8407H14.8407H14.8406H14.8406H14.8406H14.8406H14.8406H14.8406H14.8406H14.8406H14.8406H14.8406H14.8406H14.8406H14.8406H14.8406H14.8406H14.8406H14.8406H14.8406H14.8406H14.8406H14.8406H14.8406H14.8406H14.8406H14.8406H14.8406H14.8405H14.8405H14.8405H14.8405H14.8405H14.8405H14.8405H14.8405H14.8405H14.8405H14.8405H14.8405H14.8405H14.8405H14.8405H14.8405H14.8405H14.8405H14.8405H14.8405H14.8405H14.8405H14.8405H14.8405H14.8405H14.8405H14.8405H14.8404H14.8404H14.8404H14.8404H14.8404H14.8404H14.8404H14.8404H14.8404H14.8404H14.8404H14.8404H14.8404H14.8404H14.8404H14.8404H14.8404H14.8404H14.8404H14.8404H14.8404H14.8404H14.8404H14.8404H14.8404H14.8404H14.8403H14.8403H14.8403H14.8403H14.8403H14.8403H14.8403H14.8403H14.8403H14.8403H14.8403H14.8403H14.8403H14.8403H14.8403H14.8403H14.8403H14.8403H14.8403H14.8403H14.8403H14.8403H14.8403H14.8403H14.8403H14.8402H14.8402H14.8402H14.8402H14.8402H14.8402H14.8402H14.8402H14.8402H14.8402H14.8402H14.8402H14.8402H14.8402H14.8402H14.8402H14.8402H14.8402H14.8402H14.8402H14.8402L14.8163 9.27948Z" fill="white" stroke="white" stroke-width="0.2"/>
<path d="M10.0723 11.7567L10.0723 11.7567C9.71649 12.4255 9.5285 13.182 9.5285 13.9448C9.5285 15.7278 10.5671 17.3789 12.1751 18.1519L12.2184 18.0618L12.1751 18.1519C12.3319 18.2273 12.3979 18.4155 12.3226 18.5723C12.2684 18.685 12.1559 18.7509 12.0383 18.7509C11.9927 18.7509 11.9463 18.741 11.9022 18.7198L11.9021 18.7198C11.016 18.2937 10.2663 17.6303 9.73416 16.8011C9.18747 15.9492 8.89846 14.9616 8.89846 13.9448C8.89846 13.079 9.11212 12.22 9.51612 11.4607L9.51613 11.4607C9.5978 11.3071 9.78864 11.2489 9.94217 11.3306L9.94218 11.3306C10.0958 11.4123 10.154 11.6031 10.0723 11.7567Z" fill="white" stroke="white" stroke-width="0.2"/>
<path d="M13.5708 18.61V18.61H13.5712C13.7451 18.61 13.8862 18.751 13.8862 18.925C13.8862 19.0989 13.7451 19.24 13.5712 19.24L13.5438 19.2399C13.5438 19.2399 13.5438 19.2399 13.5438 19.2399C13.3698 19.2391 13.2294 19.0974 13.2303 18.9234L13.2303 18.9234C13.231 18.7495 13.3716 18.6096 13.547 18.6099L13.5708 18.61Z" fill="white" stroke="white" stroke-width="0.2"/>
<path d="M15.986 7.18399L16.0048 7.22869L16.0515 7.24166C18.9877 8.05649 21.149 10.753 21.149 13.9447C21.149 17.7798 18.0288 20.9 14.1937 20.9C12.1916 20.9 10.3847 20.0494 9.11424 18.6906L9.08459 18.6589H9.04119H4.15019C3.15276 18.6589 2.3411 17.8472 2.3411 16.8498C2.3411 16.2771 2.60885 15.7659 3.02612 15.434L3.12448 15.3557L3.02612 15.2774C2.60885 14.9455 2.3411 14.4343 2.3411 13.8616C2.3411 13.289 2.60885 12.7778 3.02612 12.4458L3.12448 12.3676L3.02612 12.2893C2.60885 11.9573 2.3411 11.4461 2.3411 10.8735C2.3411 10.3009 2.60885 9.78965 3.02612 9.45768L3.12448 9.37943L3.02612 9.30117C2.60885 8.9692 2.3411 8.458 2.3411 7.88536C2.3411 6.88793 3.15276 6.07627 4.15019 6.07627H5.23256H5.42273L5.31495 5.9196C5.11466 5.62845 4.99722 5.27644 4.99722 4.89722C4.99722 4.51801 5.1147 4.166 5.31495 3.87484L5.42271 3.71817H5.23256H1.90909C0.911662 3.71817 0.1 2.90651 0.1 1.90909C0.1 0.911662 0.911662 0.1 1.90909 0.1H12.0771C13.0745 0.1 13.8861 0.911662 13.8861 1.90909C13.8861 2.2883 13.7687 2.64031 13.5684 2.93147L13.4607 3.08814H13.6508H16.9743C17.9717 3.08814 18.7834 3.8998 18.7834 4.89722C18.7834 5.89465 17.9717 6.70631 16.9743 6.70631H15.8938H15.7042L15.8113 6.86279C15.8795 6.96238 15.9381 7.06985 15.986 7.18399ZM14.7806 7.01436L14.8326 6.82472C14.6759 6.7488 14.5009 6.70631 14.3182 6.70631H4.15019C3.49999 6.70631 2.97114 7.23516 2.97114 7.88536C2.97114 8.53556 3.49999 9.06441 4.15019 9.06441H9.20105H9.24255L9.27185 9.03503C10.5319 7.77184 12.2731 6.98936 14.1937 6.98936C14.3913 6.98936 14.5869 6.99811 14.7806 7.01436ZM8.57268 9.8534L8.6887 9.69445H8.49191H4.15019C3.49995 9.69445 2.97114 10.2233 2.97114 10.8735C2.97114 11.5237 3.49995 12.0525 4.15019 12.0525H7.42519H7.49996L7.5211 11.9808C7.74912 11.2075 8.10819 10.4898 8.57268 9.8534ZM7.33325 12.799L7.35263 12.6826H7.23461H4.15019C3.49995 12.6826 2.97114 13.2114 2.97114 13.8616C2.97114 14.5119 3.49995 15.0407 4.15019 15.0407H7.209H7.3242L7.30801 14.9266C7.26246 14.6057 7.23837 14.2779 7.23837 13.9447C7.23837 13.5545 7.27118 13.1719 7.33325 12.799ZM7.47504 15.7448L7.45517 15.6707H7.37846H4.15019C3.49995 15.6707 2.97114 16.1995 2.97114 16.8498C2.97114 17.5 3.49995 18.0288 4.15019 18.0288H8.37421H8.56419L8.45665 17.8722C8.0168 17.2317 7.68146 16.5144 7.47504 15.7448ZM18.1533 4.89722C18.1533 4.24703 17.6245 3.71817 16.9743 3.71817H6.80631C6.15607 3.71817 5.62726 4.24703 5.62726 4.89722C5.62726 5.54742 6.15607 6.07627 6.80631 6.07627H14.3182H16.9743C17.6245 6.07627 18.1533 5.54742 18.1533 4.89722ZM0.730038 1.90909C0.730038 2.55928 1.25884 3.08814 1.90909 3.08814H12.0771C12.7273 3.08814 13.2561 2.55928 13.2561 1.90909C13.2561 1.25889 12.7273 0.730038 12.0771 0.730038H1.90909C1.25884 0.730038 0.730038 1.25889 0.730038 1.90909ZM7.86841 13.9447C7.86841 17.4325 10.7058 20.27 14.1937 20.27C17.6815 20.27 20.519 17.4325 20.519 13.9447C20.519 10.4568 17.6815 7.61939 14.1937 7.61939C10.7058 7.61939 7.86841 10.4568 7.86841 13.9447Z" fill="white" stroke="white" stroke-width="0.2"/>
</svg>

<svg width="22" height="21" fill="none" xmlns="http://www.w3.org/2000/svg"><path d="M14.507 11.14v.08l.078.017c.721.164 1.25.768 1.25 1.476a.315.315 0 01-.63 0c0-.504-.469-.89-1.013-.89-.545 0-1.013.386-1.013.89s.468.89 1.013.89c.913 0 1.643.689 1.643 1.52 0 .709-.529 1.312-1.25 1.476l-.078.018v.26a.315.315 0 01-.63 0v-.26l-.078-.018c-.722-.164-1.25-.768-1.25-1.476a.315.315 0 01.63 0c0 .505.468.89 1.013.89.544 0 1.013-.386 1.013-.89s-.469-.89-1.013-.89c-.913 0-1.643-.689-1.643-1.52 0-.708.528-1.312 1.25-1.476l.078-.018v-.296a.315.315 0 01.63 0v.216zM16.485 9.17h0a5.307 5.307 0 012.168 1.918 5.306 5.306 0 01.218 5.34l.088.048-.088-.047a.315.315 0 01-.426.13h0a.315.315 0 01-.13-.426h0a4.674 4.674 0 00.544-2.188 4.693 4.693 0 00-2.647-4.208.315.315 0 01-.147-.42h0a.315.315 0 01.42-.147zM14.816 9.28h0a.315.315 0 010-.63h.028a.315.315 0 01-.002.63h0-.001 0-.025zM10.072 11.757h0a4.674 4.674 0 00-.543 2.188 4.693 4.693 0 002.646 4.207l.043-.09-.043.09a.315.315 0 01-.273.568h0A5.309 5.309 0 019.734 16.8a5.306 5.306 0 01-.218-5.34h0a.315.315 0 01.426-.13h0a.315.315 0 01.13.426zM13.57 18.61v0h.001a.315.315 0 010 .63h-.027s0 0 0 0a.315.315 0 01-.314-.317h0c.001-.173.142-.313.317-.313h.024z" fill="#fff" stroke="#fff" stroke-width=".2"/><path d="M15.986 7.184l.019.045.047.013c2.936.814 5.097 3.511 5.097 6.703a6.963 6.963 0 01-6.955 6.955 6.937 6.937 0 01-5.08-2.21l-.03-.031H4.152c-.998 0-1.81-.812-1.81-1.81 0-.572.268-1.083.685-1.415l.098-.078-.098-.079a1.806 1.806 0 010-2.831l.098-.078-.098-.079a1.806 1.806 0 010-2.831l.098-.079-.098-.078a1.806 1.806 0 01-.685-1.416c0-.997.812-1.809 1.81-1.809h1.272l-.108-.156a1.798 1.798 0 010-2.045l.108-.157H1.909C.912 3.718.1 2.907.1 1.91.1.912.912.1 1.91.1h10.167a1.811 1.811 0 011.491 2.831l-.107.157h3.513c.998 0 1.81.812 1.81 1.81 0 .997-.812 1.808-1.81 1.808h-1.27l.107.157c.069.1.127.207.175.321zm-1.205-.17l.052-.19a1.178 1.178 0 00-.515-.118H4.15a1.18 1.18 0 000 2.358h5.093l.029-.029a6.933 6.933 0 015.509-2.02zm-6.208 2.84l.116-.16H4.15a1.18 1.18 0 000 2.358H7.5l.021-.071a6.936 6.936 0 011.052-2.128zm-1.24 2.945l.02-.116H4.15a1.18 1.18 0 000 2.358H7.324l-.016-.114a6.984 6.984 0 01.025-2.128zm.142 2.946l-.02-.074H4.15a1.18 1.18 0 000 2.358H8.564l-.107-.157a6.927 6.927 0 01-.982-2.127zM18.153 4.897a1.18 1.18 0 00-1.179-1.179H6.806a1.18 1.18 0 000 2.358h10.168a1.18 1.18 0 001.18-1.179zM.73 1.91c0 .65.529 1.18 1.18 1.18h10.167a1.18 1.18 0 000-2.359H1.91C1.26.73.73 1.259.73 1.91zm7.138 12.036a6.332 6.332 0 006.326 6.325 6.332 6.332 0 006.325-6.325 6.332 6.332 0 00-6.325-6.326 6.332 6.332 0 00-6.326 6.326z" fill="#fff" stroke="#fff" stroke-width=".2"/></svg>
